; generated by Slic3r 1.1.7 on 2015-05-11 at 12:06:55

; perimeters extrusion width = 0.35mm
; infill extrusion width = 0.52mm
; solid infill extrusion width = 0.52mm
; top infill extrusion width = 0.52mm

G21 ; set units to millimeters
M107 ; disable fan
M84 S0 ; don't let go of motors
M301 P10 I0.9 D250 ; set better PID parameters
M108 S155 ; make sure extruder and electronics fans are running
M104 S175
M140 S65
; now we've started heating, but let's move off the platform while we wait (and drool)
G28 X0 Y0; home X and Y
G1 F10800 ; set high speed
G1 Y20 ; move into the platform along Y
G1 X205 ; move off the platform end along X
G28 Z0 ; home Z now - blobs won't hit the platform
G1 F400
G1 Z10 ; lift Z a little
M190 S65
M109 S175 ; heat nozzle
G28 Z0 ; home Z
G92 E0 ; reset extruder position to 0
G1 F300 ; set suitable speed
G1 E25 ; extrude 25mm
G92 E0 ; reset extruder position to 0
G1 F10800 ; set high speed
G1 X0 ; wipe nozzle and move to X0
G90 ; use absolute coordinates
G92 E0 ; reset extrusion distance
M82 ; use absolute distances for extrusion
M204 S2000 ; adjust acceleration
G1 F1200.000 E-0.50000 ; retract
G92 E0 ; reset extrusion distance
G1 Z0.250 F18000.000 ; move to next layer (0)
G1 X61.271 Y111.711 F18000.000 ; move to first skirt point
G1 E0.50000 F1200.000 ; compensate retraction
G1 X61.692 Y111.484 E0.52557 F1800.000 ; skirt
G1 X104.090 Y90.445 E3.05522 ; skirt
G1 X104.387 Y90.349 E3.07194 ; skirt
G1 X106.592 Y90.000 E3.19128 ; skirt
G1 X121.047 Y90.000 E3.96384 ; skirt
G1 X123.253 Y90.349 E4.08318 ; skirt
G1 X123.550 Y90.445 E4.09990 F1800.000 ; skirt
G1 X125.544 Y91.460 E4.21945 ; skirt
G1 X125.797 Y91.644 E4.23618 ; skirt
G1 X127.377 Y93.225 E4.35566 ; skirt
G1 X127.741 Y93.738 E4.38926 ; skirt
G1 X144.859 Y119.665 E6.04976 ; skirt
G1 X145.173 Y120.208 E6.08328 ; skirt
G1 X145.780 Y121.573 E6.16310 ; skirt
G1 X145.974 Y122.169 E6.19662 ; skirt
G1 X146.285 Y123.630 E6.27641 ; skirt
G1 X146.350 Y124.253 E6.30993 ; skirt
G1 X146.350 Y125.747 E6.38975 ; skirt
G1 X146.285 Y126.370 E6.42327 ; skirt
G1 X145.974 Y127.831 E6.50306 ; skirt
G1 X145.780 Y128.427 E6.53658 ; skirt
G1 X145.173 Y129.792 E6.61641 ; skirt
G1 X144.633 Y130.701 E6.67296 ; skirt
G1 X127.561 Y156.521 E8.32730 ; skirt
G1 X127.377 Y156.775 E8.34402 ; skirt
G1 X125.797 Y158.356 E8.46351 ; skirt
G1 X125.544 Y158.540 E8.48023 ; skirt
G1 X123.550 Y159.555 E8.59979 ; skirt
G1 X123.253 Y159.651 E8.61651 ; skirt
G1 X121.047 Y160.000 E8.73584 ; skirt
G1 X106.592 Y160.000 E9.50841 ; skirt
G1 X104.387 Y159.651 E9.62774 ; skirt
G1 X103.109 Y159.154 E9.70103 ; skirt
G1 X61.272 Y138.289 E12.19972 ; skirt
G1 X59.437 Y136.771 E12.32704 ; skirt
G1 X58.657 Y135.674 E12.39896 ; skirt
G1 X54.568 Y128.591 E12.83607 ; skirt
G1 X53.737 Y126.359 E12.96338 ; skirt
G1 X53.611 Y125.020 E13.03525 ; skirt
G1 X54.008 Y122.631 E13.16468 ; skirt
G1 X54.568 Y121.409 E13.23655 ; skirt
G1 X58.657 Y114.326 E13.67366 ; skirt
G1 X60.175 Y112.490 E13.80097 ; skirt
G1 X61.228 Y111.742 E13.87002 ; skirt
G1 X61.557 Y112.206 F18000.000 ; move to first skirt point
G1 X61.947 Y111.995 E13.89371 F1800.000 ; skirt
G1 X104.266 Y90.989 E16.41885 ; skirt
G1 X104.564 Y90.892 E16.43557 ; skirt
G1 X106.592 Y90.571 E16.54536 ; skirt
G1 X121.047 Y90.571 E17.31793 ; skirt
G1 X123.076 Y90.892 E17.42772 ; skirt
G1 X123.374 Y90.989 E17.44444 F1800.000 ; skirt
G1 X125.208 Y91.923 E17.55443 ; skirt
G1 X125.461 Y92.107 E17.57115 ; skirt
G1 X126.915 Y93.561 E17.68108 ; skirt
G1 X127.264 Y94.053 E17.71332 ; skirt
G1 X144.365 Y119.951 E19.37198 ; skirt
G1 X144.678 Y120.494 E19.40550 ; skirt
G1 X145.237 Y121.749 E19.47895 ; skirt
G1 X145.431 Y122.346 E19.51247 ; skirt
G1 X145.716 Y123.689 E19.58587 ; skirt
G1 X145.782 Y124.313 E19.61939 ; skirt
G1 X145.782 Y125.687 E19.69283 ; skirt
G1 X145.716 Y126.311 E19.72635 ; skirt
G1 X145.431 Y127.654 E19.79975 ; skirt
G1 X145.237 Y128.251 E19.83327 ; skirt
G1 X144.678 Y129.506 E19.90671 ; skirt
G1 X144.156 Y130.386 E19.96142 ; skirt
G1 X127.099 Y156.186 E21.61441 ; skirt
G1 X126.915 Y156.439 E21.63114 ; skirt
G1 X125.461 Y157.893 E21.74107 ; skirt
G1 X125.208 Y158.077 E21.75779 ; skirt
G1 X123.374 Y159.011 E21.86778 ; skirt
G1 X123.076 Y159.108 E21.88450 ; skirt
G1 X121.047 Y159.429 E21.99429 ; skirt
G1 X106.592 Y159.429 E22.76686 ; skirt
G1 X104.564 Y159.108 E22.87665 ; skirt
G1 X103.364 Y158.643 E22.94541 ; skirt
G1 X61.558 Y137.794 E25.44223 ; skirt
G1 X59.152 Y135.389 E25.62408 ; skirt
G1 X55.062 Y128.306 E26.06119 ; skirt
G1 X54.182 Y125.020 E26.24299 ; skirt
G1 X55.062 Y121.694 E26.42688 ; skirt
G1 X59.152 Y114.611 E26.86398 ; skirt
G1 X61.520 Y112.243 E27.04297 ; skirt
G1 F1200.000 E26.54297 ; retract
G92 E0 ; reset extrusion distance
G1 X92.588 Y127.069 F18000.000 ; move to first perimeter point
G1 E0.50000 F1200.000 ; compensate retraction
G1 X92.132 Y127.272 E0.52669 F1800.000 ; perimeter
G1 X91.643 Y127.376 E0.55338 ; perimeter
G1 X91.144 Y127.376 E0.58007 ; perimeter
G1 X90.655 Y127.272 E0.60676 ; perimeter
G1 X90.199 Y127.069 E0.63345 ; perimeter
G1 X89.795 Y126.775 E0.66014 ; perimeter
G1 X89.461 Y126.404 E0.68683 ; perimeter
G1 X89.211 Y125.972 E0.71352 ; perimeter
G1 X89.057 Y125.497 E0.74021 ; perimeter
G1 X89.005 Y125.000 E0.76690 ; perimeter
G1 X89.057 Y124.503 E0.79359 ; perimeter
G1 X89.211 Y124.028 E0.82028 ; perimeter
G1 X89.461 Y123.596 E0.84697 ; perimeter
G1 X89.795 Y123.225 E0.87366 ; perimeter
G1 X90.199 Y122.931 E0.90035 ; perimeter
G1 X90.655 Y122.728 E0.92704 ; perimeter
G1 X91.144 Y122.624 E0.95373 ; perimeter
G1 X91.643 Y122.624 E0.98042 ; perimeter
G1 X92.132 Y122.728 E1.00711 ; perimeter
G1 X92.588 Y122.931 E1.03380 F1800.000 ; perimeter
G1 X92.992 Y123.225 E1.06049 ; perimeter
G1 X93.326 Y123.596 E1.08718 ; perimeter
G1 X93.576 Y124.028 E1.11387 ; perimeter
G1 X93.730 Y124.503 E1.14056 ; perimeter
G1 X93.782 Y125.000 E1.16725 ; perimeter
G1 X93.730 Y125.497 E1.19394 ; perimeter
G1 X93.576 Y125.972 E1.22063 ; perimeter
G1 X93.326 Y126.404 E1.24732 ; perimeter
G1 X92.992 Y126.775 E1.27401 ; perimeter
G1 X92.630 Y127.038 E1.29789 ; perimeter
G1 X92.300 Y126.571 F18000.000 ; move to first perimeter point
G1 X91.954 Y126.725 E1.31816 F1800.000 ; perimeter
G1 X91.583 Y126.804 E1.33843 ; perimeter
G1 X91.204 Y126.804 E1.35871 ; perimeter
G1 X90.833 Y126.725 E1.37898 ; perimeter
G1 X90.486 Y126.571 E1.39925 ; perimeter
G1 X90.179 Y126.348 E1.41952 ; perimeter
G1 X89.926 Y126.066 E1.43979 ; perimeter
G1 X89.736 Y125.738 E1.46006 ; perimeter
G1 X89.619 Y125.377 E1.48033 ; perimeter
G1 X89.579 Y125.000 E1.50060 ; perimeter
G1 X89.619 Y124.623 E1.52087 ; perimeter
G1 X89.736 Y124.262 E1.54114 ; perimeter
G1 X89.926 Y123.934 E1.56141 ; perimeter
G1 X90.179 Y123.652 E1.58168 ; perimeter
G1 X90.486 Y123.429 E1.60196 ; perimeter
G1 X90.833 Y123.275 E1.62223 ; perimeter
G1 X91.204 Y123.196 E1.64250 ; perimeter
G1 X91.583 Y123.196 E1.66277 F1800.000 ; perimeter
G1 X91.954 Y123.275 E1.68304 ; perimeter
G1 X92.300 Y123.429 E1.70331 ; perimeter
G1 X92.607 Y123.652 E1.72358 ; perimeter
G1 X92.861 Y123.934 E1.74385 ; perimeter
G1 X93.051 Y124.262 E1.76412 ; perimeter
G1 X93.168 Y124.623 E1.78439 ; perimeter
G1 X93.208 Y125.000 E1.80467 ; perimeter
G1 X93.168 Y125.377 E1.82494 ; perimeter
G1 X93.051 Y125.738 E1.84521 ; perimeter
G1 X92.861 Y126.066 E1.86548 ; perimeter
G1 X92.607 Y126.348 E1.88575 ; perimeter
G1 X92.343 Y126.540 E1.90321 ; perimeter
G1 X91.155 Y122.849 F18000.000 ; move inwards before travel
G1 F1200.000 E1.40321 ; retract
G92 E0 ; reset extrusion distance
G1 X89.690 Y128.291 F18000.000 ; move to first perimeter point
G1 E0.50000 F1200.000 ; compensate retraction
G1 X89.277 Y130.006 E0.59426 F1800.000 ; perimeter
G1 X89.154 Y130.191 E0.60614 ; perimeter
G1 X88.793 Y130.533 E0.63272 ; perimeter
G1 X87.887 Y131.072 E0.68906 ; perimeter
G1 X87.901 Y130.018 E0.74541 ; perimeter
G1 X88.018 Y129.535 E0.77199 ; perimeter
G1 X88.116 Y129.336 E0.78386 ; perimeter
G1 X89.395 Y128.120 E0.87813 ; perimeter
G1 X89.645 Y128.265 E0.89358 ; perimeter
G1 X93.096 Y128.291 F18000.000 ; move to first perimeter point
G1 X93.392 Y128.120 E0.91184 F1800.000 ; perimeter
G1 X94.670 Y129.336 E1.00611 ; perimeter
G1 X94.769 Y129.535 E1.01798 ; perimeter
G1 X94.885 Y130.018 E1.04456 ; perimeter
G1 X94.899 Y131.072 E1.10091 ; perimeter
G1 X93.993 Y130.533 E1.15725 ; perimeter
G1 X93.633 Y130.191 E1.18383 ; perimeter
G1 X93.510 Y130.006 E1.19571 ; perimeter
G1 X93.109 Y128.342 E1.28716 ; perimeter
G1 X95.095 Y125.171 F18000.000 ; move to first perimeter point
G1 X95.095 Y124.829 E1.30543 F1800.000 ; perimeter
G1 X96.787 Y124.330 E1.39969 ; perimeter
G1 X97.008 Y124.344 E1.41156 ; perimeter
G1 X97.485 Y124.485 E1.43814 ; perimeter
G1 X98.405 Y125.000 E1.49449 ; perimeter
G1 X97.485 Y125.515 E1.55083 ; perimeter
G1 X97.008 Y125.656 E1.57741 ; perimeter
G1 X96.787 Y125.670 E1.58928 ; perimeter
G1 X95.145 Y125.186 E1.68074 ; perimeter
G1 X93.392 Y121.880 F18000.000 ; move to first perimeter point
G1 X93.096 Y121.709 E1.69900 F1800.000 ; perimeter
G1 X93.510 Y119.994 E1.79327 ; perimeter
G1 X93.633 Y119.809 E1.80514 ; perimeter
G1 X93.993 Y119.467 E1.83172 ; perimeter
G1 X94.899 Y118.928 E1.88806 ; perimeter
G1 X94.885 Y119.982 E1.94441 ; perimeter
G1 X94.769 Y120.465 E1.97099 ; perimeter
G1 X94.670 Y120.664 E1.98287 ; perimeter
G1 X93.430 Y121.844 E2.07432 ; perimeter
G1 X93.094 Y121.929 F18000.000 ; move to first perimeter point
G1 X94.904 Y124.937 E2.26196 F1800.000 ; perimeter
G1 X93.203 Y128.009 E2.44959 ; perimeter
G1 X89.693 Y128.071 E2.63723 ; perimeter
G1 X87.883 Y125.063 E2.82487 ; perimeter
G1 X89.584 Y121.991 E3.01250 ; perimeter
G1 X93.042 Y121.930 E3.19733 ; perimeter
G1 X89.690 Y121.709 F18000.000 ; move to first perimeter point
G1 X89.395 Y121.880 E3.21559 F1800.000 ; perimeter
G1 X88.116 Y120.664 E3.30986 ; perimeter
G1 X88.018 Y120.465 E3.32173 ; perimeter
G1 X87.901 Y119.982 E3.34831 ; perimeter
G1 X87.887 Y118.928 E3.40466 ; perimeter
G1 X88.793 Y119.467 E3.46100 ; perimeter
G1 X89.154 Y119.809 E3.48758 ; perimeter
G1 X89.277 Y119.994 E3.49946 ; perimeter
G1 X89.678 Y121.658 E3.59092 ; perimeter
G1 X87.692 Y124.829 F18000.000 ; move to first perimeter point
G1 X87.692 Y125.171 E3.60918 F1800.000 ; perimeter
G1 X86.000 Y125.670 E3.70344 ; perimeter
G1 X85.778 Y125.656 E3.71532 ; perimeter
G1 X85.301 Y125.515 E3.74189 ; perimeter
G1 X84.382 Y125.000 E3.79824 ; perimeter
G1 X85.301 Y124.485 E3.85458 ; perimeter
G1 X85.778 Y124.344 E3.88116 ; perimeter
G1 X86.000 Y124.330 E3.89304 ; perimeter
G1 X87.641 Y124.814 E3.98449 ; perimeter
G1 X87.690 Y124.233 F18000.000 ; move to first perimeter point
G1 X88.845 Y122.146 E4.11200 F1800.000 ; perimeter
G1 X87.684 Y121.042 E4.19762 ; perimeter
G1 X87.633 Y120.976 E4.20211 ; perimeter
G1 X87.478 Y120.661 E4.22085 ; perimeter
G1 X87.331 Y120.054 E4.25426 ; perimeter
G1 X87.319 Y119.151 E4.30249 ; perimeter
G1 X87.508 Y118.271 E4.35060 ; perimeter
G1 X88.365 Y118.547 E4.39872 ; perimeter
G1 X89.141 Y119.008 E4.44695 ; perimeter
G1 X89.594 Y119.439 E4.48036 ; perimeter
G1 X89.788 Y119.731 E4.49910 ; perimeter
G1 X89.820 Y119.809 E4.50359 ; perimeter
G1 X90.206 Y121.409 E4.59155 ; perimeter
G1 X92.591 Y121.366 E4.71906 ; perimeter
G1 X92.967 Y119.809 E4.80468 ; perimeter
G1 X92.998 Y119.731 E4.80917 ; perimeter
G1 X93.193 Y119.439 E4.82791 ; perimeter
G1 X93.646 Y119.008 E4.86132 ; perimeter
G1 X94.421 Y118.547 E4.90955 ; perimeter
G1 X95.278 Y118.271 E4.95766 ; perimeter
G1 X95.468 Y119.151 E5.00578 ; perimeter
G1 X95.456 Y120.054 E5.05401 ; perimeter
G1 X95.309 Y120.661 E5.08742 ; perimeter
G1 X95.154 Y120.976 E5.10616 ; perimeter
G1 X95.102 Y121.042 E5.11065 ; perimeter
G1 X93.910 Y122.176 E5.19861 ; perimeter
G1 X95.139 Y124.220 E5.32612 ; perimeter
G1 X96.676 Y123.767 E5.41174 ; perimeter
G1 X96.759 Y123.756 E5.41623 ; perimeter
G1 X97.109 Y123.778 E5.43497 ; perimeter
G1 X97.708 Y123.955 E5.46838 ; perimeter
G1 X98.496 Y124.396 E5.51661 ; perimeter
G1 X99.163 Y125.000 E5.56473 ; perimeter
G1 X98.496 Y125.604 E5.61284 ; perimeter
G1 X97.708 Y126.045 E5.66107 ; perimeter
G1 X97.109 Y126.222 E5.69448 ; perimeter
G1 X96.759 Y126.244 E5.71322 ; perimeter
G1 X96.676 Y126.233 E5.71771 ; perimeter
G1 X95.097 Y125.767 E5.80568 ; perimeter
G1 X93.941 Y127.854 E5.93318 ; perimeter
G1 X95.102 Y128.958 E6.01880 ; perimeter
G1 X95.154 Y129.024 E6.02329 ; perimeter
G1 X95.309 Y129.339 E6.04204 ; perimeter
G1 X95.456 Y129.946 E6.07544 ; perimeter
G1 X95.468 Y130.849 E6.12367 ; perimeter
G1 X95.278 Y131.729 E6.17179 ; perimeter
G1 X94.421 Y131.453 E6.21990 ; perimeter
G1 X93.646 Y130.992 E6.26813 ; perimeter
G1 X93.193 Y130.561 E6.30154 ; perimeter
G1 X92.998 Y130.269 E6.32028 ; perimeter
G1 X92.967 Y130.191 E6.32477 ; perimeter
G1 X92.581 Y128.591 E6.41274 ; perimeter
G1 X90.196 Y128.634 E6.54024 ; perimeter
G1 X89.820 Y130.191 E6.62586 ; perimeter
G1 X89.788 Y130.269 E6.63035 ; perimeter
G1 X89.594 Y130.561 E6.64910 ; perimeter
G1 X89.141 Y130.992 E6.68250 ; perimeter
G1 X88.365 Y131.453 E6.73073 ; perimeter
G1 X87.508 Y131.729 E6.77885 ; perimeter
G1 X87.319 Y130.849 E6.82696 ; perimeter
G1 X87.331 Y129.946 E6.87519 ; perimeter
G1 X87.478 Y129.339 E6.90860 ; perimeter
G1 X87.633 Y129.024 E6.92734 ; perimeter
G1 X87.684 Y128.958 E6.93183 ; perimeter
G1 X88.877 Y127.824 E7.01980 ; perimeter
G1 X87.648 Y125.780 E7.14730 ; perimeter
G1 X86.111 Y126.233 E7.23292 ; perimeter
G1 X86.028 Y126.244 E7.23741 ; perimeter
G1 X85.678 Y126.222 E7.25616 ; perimeter
G1 X85.078 Y126.045 E7.28956 ; perimeter
G1 X84.291 Y125.604 E7.33779 ; perimeter
G1 X83.623 Y125.000 E7.38591 ; perimeter
G1 X84.291 Y124.396 E7.43402 ; perimeter
G1 X85.078 Y123.955 E7.48225 ; perimeter
G1 X85.678 Y123.778 E7.51566 ; perimeter
G1 X86.028 Y123.756 E7.53440 ; perimeter
G1 X86.111 Y123.767 E7.53889 ; perimeter
G1 X87.639 Y124.218 E7.62405 ; perimeter
G1 X88.007 Y124.380 F18000.000 ; move inwards before travel
G1 X88.984 Y129.174 F18000.000 ; move to first fill point
G1 X89.055 Y129.245 E7.62943 F1800.000 ; fill
G1 X88.466 Y129.574 E7.66550 ; fill
G1 X88.824 Y129.933 E7.69258 ; fill
G1 X88.326 Y130.353 E7.72742 ; fill
G1 X88.292 Y130.319 E7.73001 ; fill
G1 X89.622 Y127.158 F18000.000 ; move to first fill point
G1 X89.984 Y127.544 E7.74589 F1800.000 ; fill
G1 X90.498 Y127.649 E7.76162 ; fill
G1 X92.376 Y127.612 F18000.000 ; move to first fill point
G1 X92.892 Y127.492 E7.77751 F1800.000 ; fill
G1 X93.240 Y127.099 E7.79323 ; fill
G1 X93.877 Y129.131 F18000.000 ; move to first fill point
G1 X94.375 Y129.629 E7.83089 F1800.000 ; fill
G1 X94.147 Y125.455 F18000.000 ; move to first fill point
G1 X94.301 Y124.948 E7.84677 F1800.000 ; fill
G1 X94.135 Y124.451 E7.86250 ; fill
G1 X93.164 Y122.842 F18000.000 ; move to first fill point
G1 X92.802 Y122.456 E7.87838 F1800.000 ; fill
G1 X92.288 Y122.351 E7.89411 ; fill
G1 X90.410 Y122.388 F18000.000 ; move to first fill point
G1 X89.894 Y122.508 E7.90999 F1800.000 ; fill
G1 X89.547 Y122.901 E7.92572 ; fill
G1 X88.639 Y124.545 F18000.000 ; move to first fill point
G1 X88.486 Y125.052 E7.94160 F1800.000 ; fill
G1 X88.652 Y125.549 E7.95733 ; fill
G1 X86.524 Y124.896 F18000.000 ; move to first fill point
G1 X86.574 Y124.945 E7.96107 F1800.000 ; fill
G1 X85.281 Y125.052 E8.03039 ; fill
G1 X85.229 Y125.000 E8.03433 ; fill
G1 F1200.000 E7.53433 ; retract
G92 E0 ; reset extrusion distance
G1 X88.907 Y120.150 F18000.000 ; move to first fill point
G1 E0.50000 F1200.000 ; compensate retraction
G1 X88.519 Y119.762 E0.52934 F1800.000 ; fill
G1 F1200.000 E0.02934 ; retract
G92 E0 ; reset extrusion distance
G1 X93.732 Y120.755 F18000.000 ; move to first fill point
G1 E0.50000 F1200.000 ; compensate retraction
G1 X93.803 Y120.826 E0.50538 F1800.000 ; fill
G1 X94.321 Y120.426 E0.54037 ; fill
G1 X93.963 Y120.067 E0.56746 ; fill
G1 X94.495 Y119.681 E0.60260 ; fill
G1 X94.461 Y119.647 E0.60520 ; fill
G1 F1200.000 E0.10520 ; retract
G92 E0 ; reset extrusion distance
G1 X96.213 Y125.055 F18000.000 ; move to first fill point
G1 E0.50000 F1200.000 ; compensate retraction
G1 X96.262 Y125.104 E0.50375 F1800.000 ; fill
